!!!!SEGMENT: pl-sa--27-a-i-27--005_dankowski-adalbert--vespere-de-confessore-laudate-dominum.krn
!!!cenid: 18xx:330
!!!COM: Dankowski, Adalbert
!!!COM-rismID: pe30000793
!!!CDT: ~1760-~1836
!!!CNT: Polish
!!!OPR: Vespere de confessore
!!!OTL: Laudate Dominum
!!!OMV: 005
!!!PDT: 1815
!!!AGN: Sacred; Vespers
!!!SMS-siglum: PL-SA
!!!SMS-shelfmark: 27/A I 27
!!!SMS-shelfwork: 001-005 M
!!!SMS-variant:
!!!SMS-altvar:
!!!NIFC-rismSourceID: 1001068242
!!!NIFC-rismChildID: 1001068242
!!!NIFC-islandoraID:
!!!URL-pdf-islandora:
!!!URL-scan: https://bc.bdsandomierz.pl/dlibra/publication/1260/edition/1228/content @EN{Scan in the Sandomierz Diocese Digital Library} @PL{Skany w portalu Cyfrowa Biblioteka Diecezjalna w Sandomierzu}
!!!ONB-nifc: UWAGA: części Vespere: Domine ad adiuvandum, Dixit dominus,
!!!AIN: 1 alto 1 empty 1 tenor 2 violn 1 vox
!!!key:
**kern	**fba	**dynam	**kern	**dynam	**kern	**dynam	**kern	**text	**kern	**text	**kern	**text
*part6	*	*part6	*part5	*part5	*part4	*part4	*part3	*part3	*part2	*part2	*part1	*part1
*staff6	*	*	*staff5	*	*staff4	*	*staff3	*staff3	*staff2	*staff2	*staff1	*staff1
*group3	*	*	*group2	*	*group	*	*group1	*	*	*	*	*
*Iempty	*	*	*Ivioln	*	*Ivioln	*	*Itenor	*	*Ialto	*	*Ivox	*
*I"Fundamento	*	*	*I"Violino Secundo	*	*I"Violino Primo	*	*I"Tenore	*	*I"Alto	*	*I"Canto	*
*I'Org	*	*	*I'Vl 2	*	*I'vl 1	*	*I'T	*	*I'A	*	*I'S	*
*group3	*	*	*group2	*	*group2	*	*group1	*	*group1	*	*group1	*
*clefF4	*	*	*clefG2	*	*clefG2	*	*clefC4	*	*clefC3	*	*clefC1	*
*k[b-]	*	*	*k[b-]	*	*k[b-]	*	*k[b-]	*	*k[b-]	*	*k[b-]	*
*F:	*	*	*F:	*	*F:	*	*F:	*	*F:	*	*F:	*
*M2/4	*	*	*M2/4	*	*M2/4	*	*M2/4	*	*M2/4	*	*M2/4	*
=1	=1	=1	=1	=1	=1	=1	=1	=1	=1	=1	=1	=1
*2\right	*	*	*2\right	*	*	*	*2\right	*	*	*	*	*
*tremolo	*	*	*	*	*	*	*	*	*	*	*	*
*tremolo	*	*	*	*	*	*	*	*	*	*	*	*
!	!	!LO:DY:t=piano	!	!	!	!	!	!	!	!	!	!
!LO:TX:b:t=Laudate Dominum Omnes gentes	!	!	!	!	!	!	!	!	!	!	!	!
!LO:TX:a:t=Allegretto. Solo.	!	!	!LO:TX:b:t=Laudate Dominum	!	!LO:TX:b:t=Laudate Dominum	!	!LO:TX:a:t=2	!	!	!	!	!
!	!	!LO:DY:a	!LO:TX:a:t=Allegretto	!	!LO:TX:a:t=allegretto	!	!LO:TX:a:t=Alegreto=	!	!LO:TX:a:t=Solo	!	!	!
!	!	!	!	!	!	!	!LO:N:vis=0	!	!	!	!	!
8F\L	.	p	4a/	.	4cc\	.	1r	.	4a\	Lau-	4cc\	Lau-
8F\	.	.	.	.	.	.	.	.	.	.	.	.
8F\	.	.	16f/LL	.	16a/LL	.	.	.	16f\LL	-da-	16a\LL	-da-
.	.	.	16e/	.	(16g/	.	.	.	16e\JJ	.	16g\JJ	.
8F\J	.	.	16f/	.	16a/	.	.	.	16f\LL	-te	16a\LL	-te
.	.	.	16g/JJ	.	16b-/JJ)	.	.	.	16g\JJ	.	16b-\JJ	.
*Xtremolo	*	*	*	*	*	*	*	*	*	*	*	*
=2	=2	=2	=2	=2	=2	=2	=2	=2	=2	=2	=2	=2
8F/L	.	.	16a/LL	.	(16cc\LL	.	.	.	16a\LL	Do-	16cc\LL	Do-
.	.	.	16b-/	.	16dd\	.	.	.	16b-\JJ	.	16dd\JJ	.
!LO:TX:t=P:problem=mixed beam	!	!	!	!	!	!	!	!	!	!	!	!
8FF/	.	.	16a/	.	16cc\	.	.	.	16a\LL	-mi-	16cc\LL	-mi-
.	.	.	16g/JJ	.	16b-\JJ)	.	.	.	16g\JJ	.	16b-\JJ	.
8F/J	.	.	8f/L	.	8a/L	.	.	.	8f\	-num	8a\	-num
8r	.	.	8a/J	.	8cc/J	.	.	.	8r	.	8r	.
=3	=3	=3	=3	=3	=3	=3	=3	=3	=3	=3	=3	=3
*tremolo	*	*	*	*	*	*	*	*	*	*	*	*
!	!	!LO:DY:t=for.	!	!LO:DY:t=for.	!	!LO:DY:t=for.	!	!	!	!	!	!
!	!	!LO:DY:a	!	!	!	!	!	!	!	!	!	!
8F\L	.	f	8.a/L	f	(8.cc\L	f	4.c\	Om-	4a\	o-	4cc\	o-
8F\	.	.	.	.	.	.	.	.	.	.	.	.
.	.	.	32g/LL	.	32b-\LL	.	.	.	.	.	.	.
.	.	.	32a/JJJ	.	32cc\JJJ)	.	.	.	.	.	.	.
8F\	.	.	16b-/LL	.	16dd\LL	.	.	.	16b-\LL	.	16dd\LL	.
.	.	.	16a/	.	16cc\	.	.	.	16a\JJ	.	16cc\JJ	.
8F\J	.	.	16g/	.	16b-\	.	8c\	-nes	16g\LL	-mnes	16b-\LL	-mnes
.	.	.	16f/JJ	.	16a\JJ	.	.	.	16f\JJ	.	16a\JJ	.
*Xtremolo	*	*	*	*	*	*	*	*	*	*	*	*
=4	=4	=4	=4	=4	=4	=4	=4	=4	=4	=4	=4	=4
8c\L	4	.	8.f/L	.	8.a/L	.	4c\	gen-	4f\	gen-	4a\	gen-
!LO:TX:t=P:problem=mixed beam	!	!	!	!	!	!	!	!	!	!	!	!
8c\	3	.	.	.	.	.	.	.	.	.	.	.
.	.	.	32e/LL	.	(32b-/LL	.	.	.	.	.	.	.
.	.	.	32f/JJJ	.	32a/JJJ)	.	.	.	.	.	.	.
8C/J	.	.	16e/LL	.	16g/LL	.	8c\	-tes	8e\	-tes	8g\	-tes
.	.	.	16d/	.	(16f/	.	.	.	.	.	.	.
8r	.	.	16e/	.	16g/	.	8r	.	8r	.	8r	.
.	.	.	16f/JJ	.	16a/JJ)	.	.	.	.	.	.	.
=5	=5	=5	=5	=5	=5	=5	=5	=5	=5	=5	=5	=5
*tremolo	*	*	*	*	*	*	*	*	*	*	*	*
!LO:TX:a:t= pia	!	!LO:DY:a	!	!	!	!	!LO:TX:a:t=2	!	!	!	!	!
!	!	!	!	!	!	!	!LO:N:vis=0	!	!	!	!	!
8C/L	.	py	4g/	.	4b-/	.	1r	.	4g\	Lau-	4b-\	Lau-
8C/	.	.	.	.	.	.	.	.	.	.	.	.
!	!	!	!	!LO:DY:t=p.	!	!	!	!	!	!	!	!
8C/	.	.	16e/LL	p	16g/LL	.	.	.	16e\LL	-da-	16g/LL	-da-
.	.	.	16d/	.	(16f/	.	.	.	16d\JJ	.	16f/JJ	.
8C/J	.	.	16e/	.	16g/	.	.	.	16e\LL	-te	16g/LL	-te
!	!	!	!	!	!	!	!	!	!LO:TX:a:t=P:problem= znak równości jako przedłużenie sylaby	!	!LO:TX:a:t=P:problem= znak równości jako przedłużenie sylaby	!
.	.	.	16f/JJ	.	16a/JJ)	.	.	.	16f\JJ	=	16a/JJ	=
!	!	!	!	!	!	!	!	!	!LO:LB:g=original	!	!LO:LB:g=original	!
*Xtremolo	*	*	*	*	*	*	*	*	*	*	*	*
=6	=6	=6	=6	=6	=6	=6	=6	=6	=6	=6	=6	=6
8C/L	.	.	16g/LL	.	16b-/LL	.	.	.	16g\LL	e-	16b-\LL	e-
.	.	.	16a/	.	(16cc/	.	.	.	16a\	.	16cc\	.
!LO:TX:t=P:problem=mixed beam	!	!	!	!	!	!	!	!	!	!	!	!
8c\	.	.	16g/	.	16b-/	.	.	.	16g\	.	16b-\	.
.	.	.	16f/JJ	.	16a/JJ)	.	.	.	16f\JJ	.	16a\JJ	.
8C/J	.	.	8e/L	.	8g/L	.	.	.	8e\	-um	8g\	-um
8r	.	.	8g/J	.	8b-/J	.	.	.	8r	.	8r	.
!	!	!	!	!	!LO:LB:g=original	!	!	!	!	!	!	!
=7	=7	=7	=7	=7	=7	=7	=7	=7	=7	=7	=7	=7
*tremolo	*	*	*	*	*	*	*	*	*	*	*	*
!	!	!LO:DY:t=for.	!	!	!	!	!	!	!	!	!	!
!	!	!LO:DY:a	!	!LO:DY:t=for.	!	!	!	!	!	!	!	!
8C/L	.	f	8.g/L	f	8.b-/L	.	4.c\	om-	4g\	om-	4b-\	om-
8C/	.	.	.	.	.	.	.	.	.	.	.	.
.	.	.	32f/LL	.	(32a/LL	.	.	.	.	.	.	.
.	.	.	32g/JJJ	.	32b-/JJJ)	.	.	.	.	.	.	.
!	!	!	!	!	!	!LO:DY:t=for.	!	!	!	!	!	!
8C/	.	.	16a/LL	.	16cc\LL	f	.	.	16a\LL	.	16cc\LL	.
.	.	.	16g/	.	16b-\	.	.	.	16g\JJ	.	16b-\JJ	.
8C/J	.	.	16f/	.	16a\	.	8c\	-nes	16f\LL	-nes	16a\LL	-nes
.	.	.	16e/JJ	.	16g\JJ	.	.	.	16e\JJ	.	16g\JJ	.
!	!	!	!LO:LB:g=original	!	!	!	!	!	!	!	!	!
*Xtremolo	*	*	*	*	*	*	*	*	*	*	*	*
=8	=8	=8	=8	=8	=8	=8	=8	=8	=8	=8	=8	=8
8F\L	.	.	16f/LL	.	16a/LL	.	8.c\	Po-	8.f\	po-	8.a\	po-
.	.	.	16e/	.	16g/	.	.	.	.	.	.	.
!LO:TX:t=P:problem=mixed beam	!	!	!	!	!	!	!	!	!	!	!	!
8FF/	.	.	16f/	.	16a/	.	.	.	.	.	.	.
.	.	.	16g/JJ	.	16b-/JJ	.	16c\	-pu-	16g\	-pu-	16b-\	-pu-
8F\J	.	.	16a/LL	.	16cc\LL	.	8c\	-li	8a\	-li	8cc\	-li
.	.	.	16b-/	.	16dd\	.	.	.	.	.	.	.
8r	.	.	16cc/	.	16ee\	.	8r	.	8r	.	8r	.
.	.	.	16a/JJ	.	16ff\JJ	.	.	.	.	.	.	.
=9	=9	=9	=9	=9	=9	=9	=9	=9	=9	=9	=9	=9
*tremolo	*	*	*	*	*	*	*	*	*	*	*	*
!LO:TX:a:t=Tu.	!	!	!	!	!	!	!	!	!	!	!	!
8F\L	6 4	.	4b-\	.	4dd\	.	4f\	Lau-	4b-\	Lau-	4dd\	lau-
8F\	.	.	.	.	.	.	.	.	.	.	.	.
8F\	.	.	16b-\LL	.	16dd\LL	.	8f\	-da-	8b-\	-da-	8dd\	-da-
.	.	.	16cc\	.	16ee\	.	.	.	.	.	.	.
8F\J	.	.	16dd\	.	16ff\	.	8f\	-te	8b-\	-te	8dd\	-te
.	.	.	16b-\JJ	.	16dd\JJ	.	.	.	.	.	.	.
!	!	!	!	!	!	!	!LO:LB:g=original	!	!	!	!	!
=10	=10	=10	=10	=10	=10	=10	=10	=10	=10	=10	=10	=10
8F\L	3	.	16b-/LL	.	16dd\LL	.	8.f\	Do-	8.a\	Do-	8.cc\	Do-
.	.	.	16a/	.	16cc\	.	.	.	.	.	.	.
8F\	.	.	16g/	.	16b-\	.	.	.	.	.	.	.
.	.	.	16a/JJ	.	16cc\JJ	.	16f\	-mi-	16a\	-mi-	16cc\	-mi-
8F\	.	.	8a/L	.	16ff\LL	.	4f\	-num	4a\	-num	4cc\	-num
.	.	.	.	.	16ee\	.	.	.	.	.	.	.
8F\)J	.	.	8a/J	.	16dd\	.	.	.	.	.	.	.
.	.	.	.	.	16cc\JJ	.	.	.	.	.	.	.
=11	=11	=11	=11	=11	=11	=11	=11	=11	=11	=11	=11	=11
8F\L	6 4	.	4b-\	.	4dd\	.	4f\	om-	4b-\	om-	4dd\	om-
8F\	.	.	.	.	.	.	.	.	.	.	.	.
8F\	.	.	16b-\LL	.	16dd\LL	.	4f\	-nes	4b-\	-nes	4dd\	-nes
.	.	.	16cc\	.	16ee\	.	.	.	.	.	.	.
8F\J	.	.	16dd\	.	16ff\	.	.	.	.	.	.	.
.	.	.	16b-\JJ	.	16dd\JJ	.	.	.	.	.	.	.
!	!	!	!	!	!	!	!	!	!LO:LB:g=original	!	!	!
=12	=12	=12	=12	=12	=12	=12	=12	=12	=12	=12	=12	=12
8F\L	3	.	16b-/LL	.	16dd\LL	.	4f\	gen-	4a\	gen-	4cc\	gen-
.	.	.	16a/	.	16cc\	.	.	.	.	.	.	.
8F\	.	.	16g/	.	16b-\	.	.	.	.	.	.	.
.	.	.	16a/JJ	.	16cc\JJ	.	.	.	.	.	.	.
8F\	.	.	8a/L	.	16ff\LL	.	4f\	-tes	4a\	-tes	4cc\	-tes
.	.	.	.	.	16ee\	.	.	.	.	.	.	.
8F\J	.	.	8a/J	.	16dd\	.	.	.	.	.	.	.
.	.	.	.	.	16cc\JJ	.	.	.	.	.	.	.
!	!	!	!	!	!LO:LB:g=original	!	!	!	!	!	!LO:LB:g=original	!
=13	=13	=13	=13	=13	=13	=13	=13	=13	=13	=13	=13	=13
*	*	*	*tremolo	*	*	*	*	*	*	*	*	*
*	*	*	*tremolo	*	*	*	*	*	*	*	*	*
8E\L	6 5	.	8g/L	.	16b-\LL	.	4g\	Lau-	4b-\	Lau-	4cc\	Lau-
.	.	.	.	.	16cc\	.	.	.	.	.	.	.
8E\	.	.	8g/	.	16ee\	.	.	.	.	.	.	.
.	.	.	.	.	16ff\JJ	.	.	.	.	.	.	.
8E\	.	.	8g/	.	16gg\LL	.	8g\	-da-	8b-\	-da-	8cc\	-da-
.	.	.	.	.	16ee\	.	.	.	.	.	.	.
8E\J	.	.	8g/J	.	16cc\	.	8g\	-te	8b-\	-te	8cc\	-te
.	.	.	.	.	16b-\JJ	.	.	.	.	.	.	.
=14	=14	=14	=14	=14	=14	=14	=14	=14	=14	=14	=14	=14
8F\L	.	.	8f/L	.	16a\LL	.	4f\	e-	4a\	e-	4cc\	e-
.	.	.	.	.	16cc\	.	.	.	.	.	.	.
8F\	.	.	8f/	.	16ff\	.	.	.	.	.	.	.
.	.	.	.	.	16gg\JJ	.	.	.	.	.	.	.
8F\	.	.	8f/	.	16aa\LL	.	4f\	-um	4a\	-um	4ff\	-um
.	.	.	.	.	16ff\	.	.	.	.	.	.	.
8F\J	.	.	8f/J	.	16cc\	.	.	.	.	.	.	.
.	.	.	.	.	16a\JJ	.	.	.	.	.	.	.
*Xtremolo	*	*	*Xtremolo	*	*	*	*	*	*	*	*	*
=15	=15	=15	=15	=15	=15	=15	=15	=15	=15	=15	=15	=15
8B-\L	6_	.	16a/LL	.	16cc\LL	.	4d\	om-	4b-\	Om-	4gg\	om-
.	.	.	16g/	.	16b-\	.	.	.	.	.	.	.
8B-\	.	.	16b-/	.	16dd\	.	.	.	.	.	.	.
.	.	.	16a/JJ	.	16b-\JJ	.	.	.	.	.	.	.
.	.	.	8qg/	.	.	.	.	.	.	.	.	.
8Bn\	5_	.	8f/L	.	16b-/LL	.	4d\	-nes	4a\	-nes	4ff\	-nes
.	.	.	.	.	16a/	.	.	.	.	.	.	.
8B\J	.	.	16e/L	.	16g/	.	.	.	.	.	.	.
.	.	.	16f/JJ	.	16a/JJ	.	.	.	.	.	.	.
=16	=16	=16	=16	=16	=16	=16	=16	=16	=16	=16	=16	=16
8c\L	6_	.	8.f/L	.	8.a/L	.	8.c\	Po-	8.a\	po-	8.ff\	po-
8c\	.	.	.	.	.	.	.	.	.	.	.	.
.	.	.	32e/LL	.	32g/LL	.	16c\	-pu-	16a\	-pu-	16ff\	-pu-
.	.	.	32f/JJJ	.	32a/JJJ	.	.	.	.	.	.	.
!LO:TX:t=P:problem=mixed beam	!	!	!	!	!	!	!	!	!	!	!	!
8C/	.	.	8e/	.	8g/	.	8c\	-li	8g\	-li	8ee\	-li
8C/J	3	.	8r	.	8r	.	8r	.	8r	.	8r	.
!	!	!	!LO:LB:g=original	!	!	!	!LO:LB:g=original	!	!	!	!	!
=17	=17	=17	=17	=17	=17	=17	=17	=17	=17	=17	=17	=17
*tremolo	*	*	*tremolo	*	*	*	*	*	*	*	*	*
!LO:TX:a:t=bis	!	!	!	!	!	!	!	!	!	!	!	!
8C/L	.	.	8e/L	.	8.g/L	.	4c\	quo-	4g\	Quo-	4ee\	Quo-
8C/	.	.	8e/	.	.	.	.	.	.	.	.	.
.	.	.	.	.	32a/LL	.	.	.	.	.	.	.
.	.	.	.	.	32b-/JJJ	.	.	.	.	.	.	.
8C/	.	.	8e/	.	(16cc\LL	.	8c\	-ni-	8g\	-ni-	8ee\L	-ni-
.	.	.	.	.	16dd\	.	.	.	.	.	.	.
8C/J	.	.	8e/J	.	16cc\	.	8c\	-am	8g\	-am	8ee\J	-am
.	.	.	.	.	16b-\JJ)	.	.	.	.	.	.	.
=18	=18	=18	=18	=18	=18	=18	=18	=18	=18	=18	=18	=18
!LO:TX:a:t=P:problem=repetycja tt.17	!	!	!	!	!	!	!	!	!	!	!	!
8C/Lyy	.	.	8f/L	.	16b-/LL	.	4c\	Con-	4a\	Con-	4ff\	Con-
.	.	.	.	.	(16a/	.	.	.	.	.	.	.
8C/yy	.	.	8f/	.	16g/	.	.	.	.	.	.	.
.	.	.	.	.	16a/JJ	.	.	.	.	.	.	.
8C/yy	.	.	8f/	.	4a/)	.	4c\	-fir-	4a\	-fir-	4ff\	-fir-
8C/Jyy	.	.	8f/J	.	.	.	.	.	.	.	.	.
!	!	!	!	!	!LO:LB:g=original	!	!	!	!	!	!	!
=19	=19	=19	=19	=19	=19	=19	=19	=19	=19	=19	=19	=19
8C/L	6_ 4_	.	8d/L	.	(8.bn\L	.	4c\	-ma-	4bn\	-ma-	4dd\	-ma-
8C/	.	.	8d/	.	.	.	.	.	.	.	.	.
.	.	.	.	.	32cc\LL	.	.	.	.	.	.	.
.	.	.	.	.	32dd\JJJ)	.	.	.	.	.	.	.
8C/	.	.	8d/	.	(16cc\LL	.	4c\	-ta	4b\	-ta	4dd\	-ta
.	.	.	.	.	16b\	.	.	.	.	.	.	.
8C/J	.	.	8d/J	.	16a\	.	.	.	.	.	.	.
.	.	.	.	.	16b\JJ)	.	.	.	.	.	.	.
!	!	!	!	!	!	!	!	!	!LO:LB:g=original	!	!	!
*	*	*	*Xtremolo	*	*	*	*	*	*	*	*	*
=20	=20	=20	=20	=20	=20	=20	=20	=20	=20	=20	=20	=20
8C/L	7n 2	.	8e/L	.	(16cc\LL	.	4c\	eſt	4cc\	est	4ee\	est
.	.	.	.	.	16dd\	.	.	.	.	.	.	.
8C/	.	.	8e/J	.	16ee\	.	.	.	.	.	.	.
.	.	.	.	.	16dd\JJ)	.	.	.	.	.	.	.
!	!	!	!	!	!	!	!	!	!	!	!LO:TX:b:t=verto	!
8C/	.	.	8e/L	.	8cc\L	.	4c\	su-	4g\	Su-	4ee\	su-
8C/J	.	.	16c/L	.	16cc\L	.	.	.	.	.	.	.
.	.	.	16e/JJ	.	16ee\JJ	.	.	.	.	.	.	.
!	!	!	!	!	!	!	!	!	!	!	!LO:PB:g=original	!
=21	=21	=21	=21	=21	=21	=21	=21	=21	=21	=21	=21	=21
8BBn/L	6 5	.	(8.g/L	.	8.gg\L	.	4d\	-per	4g\	-per	4ff\	-per
8BBn/	.	.	.	.	.	.	.	.	.	.	.	.
.	.	.	16f/Jk)	.	16ff\Jk	.	.	.	.	.	.	.
8BBn/	.	.	(16d/LL	.	16dd\LL	.	8d\	nos	8g\	nos	8ff\	nos
.	.	.	16e/	.	16ee\	.	.	.	.	.	.	.
8BBn/J	.	.	16f/	.	16ff\	.	8d\	mi-	8g\	mi-	8ff\	mi-
.	.	.	16d/JJ)	.	16dd\JJ	.	.	.	.	.	.	.
*Xtremolo	*	*	*	*	*	*	*	*	*	*	*	*
!LO:LB:g=original	!	!	!	!	!	!	!	!	!	!	!	!
=22	=22	=22	=22	=22	=22	=22	=22	=22	=22	=22	=22	=22
8C/L	.	.	(16e/LL	.	16ee\LL	.	4c\	-se-	4g\	-se-	4ee\	-se-
.	.	.	16g/	.	16gg\	.	.	.	.	.	.	.
8C/	.	.	16a/	.	16aa\	.	.	.	.	.	.	.
.	.	.	16g/JJ)	.	16gg\JJ	.	.	.	.	.	.	.
8E/	6_	.	16f/LL	.	16ff\LL	.	4c\	-ri-	4g\	-ri-	4ee\	-ri-
.	.	.	16e/	.	16ee\	.	.	.	.	.	.	.
8E/J	.	.	(16d/	.	16dd\	.	.	.	.	.	.	.
.	.	.	16c/JJ)	.	16cc\JJ	.	.	.	.	.	.	.
=23	=23	=23	=23	=23	=23	=23	=23	=23	=23	=23	=23	=23
8G\L	4_	.	16c/LL	.	16cc\LL	.	4Bn\	-cor-	4g\	-cor-	4dd\	-cor-
.	.	.	(16Bn/	.	16bn\	.	.	.	.	.	.	.
8G\	.	.	16d/	.	16dd\	.	.	.	.	.	.	.
.	.	.	16B/JJ)	.	16b\JJ	.	.	.	.	.	.	.
8F\	.	.	8.G/L	.	(8.g/L	.	8B\	-di-	8g\	-di-	8dd\	-di-
!	!	!	!	!	!	!	!LO:TX:a:t=P:problem= znak równości jako przedłużenie sylaby	!	!	!	!	!
8F\J	.	.	.	.	.	.	8B\	-a=	8g\	-a	8dd\	-a
.	.	.	(32A/LL	.	32a/LL	.	.	.	.	.	.	.
.	.	.	32Bn/JJJ)	.	32bn/JJJ)	.	.	.	.	.	.	.
!	!	!	!	!	!	!	!LO:PB:g=original	!	!	!	!	!
=24	=24	=24	=24	=24	=24	=24	=24	=24	=24	=24	=24	=24
8E\L	6_	.	16c/LL	.	16cc\LL	.	4c\	e-	4g\	e-	4ee\	e-
.	.	.	(16Bn/	.	(16bn\	.	.	.	.	.	.	.
8E\	.	.	16c/	.	16cc\	.	.	.	.	.	.	.
.	.	.	16d/JJ)	.	16dd\JJ	.	.	.	.	.	.	.
8C\	.	.	16e/LL	.	16ee\LL)	.	8c\	-jus	8g\	-jus	8ee\	-jus
.	.	.	(16d/	.	(16dd\	.	.	.	.	.	.	.
8C\J	.	.	16e/	.	16ee\	.	8c\	mi-	8g\	mi-	8ee\	mi
.	.	.	16f/JJ)	.	16ff\JJ)	.	.	.	.	.	.	.
!	!	!	!	!	!LO:LB:g=original	!	!	!	!	!	!	!
=25	=25	=25	=25	=25	=25	=25	=25	=25	=25	=25	=25	=25
*tremolo	*	*	*	*	*	*	*	*	*	*	*	*
8BBn/L	6 5	.	8.g/L	.	8.gg\L	.	4d\	-se-	4g\	-se-	4ff\	se-
8BBn/	.	.	.	.	.	.	.	.	.	.	.	.
.	.	.	16f/Jk	.	16ff\Jk	.	.	.	.	.	.	.
8BBn/	.	.	(16d/LL	.	16dd\LL	.	4d\	-ri-	4g\	-ri-	4ff\	-ri-
.	.	.	16e/	.	16ee\	.	.	.	.	.	.	.
8BBn/J	.	.	16f/	.	16ff\	.	.	.	.	.	.	.
.	.	.	16d/JJ)	.	16dd\JJ	.	.	.	.	.	.	.
!	!	!	!LO:LB:g=original	!	!	!	!	!	!	!	!	!
*Xtremolo	*	*	*	*	*	*	*	*	*	*	*	*
=26	=26	=26	=26	=26	=26	=26	=26	=26	=26	=26	=26	=26
8C\L	.	.	16e/LL	.	16ee\LL	.	4c\	-cor-	4g\	-cor-	4ee\	-cor-
.	.	.	(16g/	.	16gg\	.	.	.	.	.	.	.
8C\	.	.	16a/	.	16aa\	.	.	.	.	.	.	.
.	.	.	16g/JJ)	.	16gg\JJ	.	.	.	.	.	.	.
8E\	6_	.	(16f/LL	.	16ff\LL	.	8c\	-di-	8g\	-di-	8gg\	-di-
.	.	.	16e/	.	16ee\	.	.	.	.	.	.	.
8E\J	.	.	16d/	.	16dd\	.	8c\	-a	8g\	-a	8gg\	-a
.	.	.	16c/JJ)	.	16cc\JJ	.	.	.	.	.	.	.
!	!	!	!	!	!	!	!	!	!LO:PB:g=original	!	!	!
=27	=27	=27	=27	=27	=27	=27	=27	=27	=27	=27	=27	=27
8F\L	6_	.	8.d/L	.	16dd\LL	.	4d\	e-	4a\	e-	4ff\	e-
.	.	.	.	.	16ee\	.	.	.	.	.	.	.
8F\	.	.	.	.	16ff\	.	.	.	.	.	.	.
.	.	.	16f/Jk	.	16dd\JJ	.	.	.	.	.	.	.
8G\	4	.	(16f/LL	.	(16dd\LL	.	8c\L	.	4g\	.	8ee\L	.
.	.	.	16e/	.	16cc\	.	.	.	.	.	.	.
!LO:TX:t=P:problem=mixed beam	!	!	!	!	!	!	!	!	!	!	!	!
8GG/J	n	.	16e/	.	16cc\	.	8Bn\J	.	.	.	8dd\J	.
.	.	.	16d/JJ)	.	16bn\JJ)	.	.	.	.	.	.	.
=28	=28	=28	=28	=28	=28	=28	=28	=28	=28	=28	=28	=28
!	!	!	!	!	!	!	!	!	!	!	!LO:TX:a:t=P:problem= znak równości jako przedłużenie sylaby	!
4C/	.	.	8e/L	.	8cc\L	.	4c\	-jus	4g\	-jus	4ee\	-jus=
.	.	.	16c/L	.	16cc\L	.	.	.	.	.	.	.
.	.	.	16e/JJ	.	16ee\JJ	.	.	.	.	.	.	.
4r	.	.	16a/LL	.	16aa\LL	.	4r	.	4r	.	4r	.
.	.	.	(16b-X/	.	16bb-X\	.	.	.	.	.	.	.
.	.	.	16a/	.	16aa\	.	.	.	.	.	.	.
.	.	.	16g/JJ)	.	16gg\JJ	.	.	.	.	.	.	.
!	!	!	!	!	!	!	!	!	!	!	!LO:LB:g=original	!
=29	=29	=29	=29	=29	=29	=29	=29	=29	=29	=29	=29	=29
8.c\L	4_ 2_	.	8.f#X/L	.	8.ff#X\L	.	8d\	et	8a\	et	8ff#X\	et
.	.	.	.	.	.	.	8d\	ve-	8a\	ve-	8ff#\	ve-
32d\LL	.	.	(32e/LL	.	32ee\LL	.	.	.	.	.	.	.
32c\JJJ	.	.	32f#/JJJ)	.	32ff#\JJJ	.	.	.	.	.	.	.
8B-X\L	6	.	16g/LL	.	16gg\LL	.	8d\	-ri-	8b-X\	-ri-	8gg\	-ri-
.	.	.	(16b-/	.	16bb-\	.	.	.	.	.	.	.
!	!	!	!	!	!	!	!LO:TX:a:t=P:problem= znak równości jako przedłużenie sylaby	!	!	!	!	!
8F#X\J	6 5	.	16a/	.	16aa\	.	8d\	-tas=	8cc\	-tas	8aa\	-tas
.	.	.	16cc/JJ)	.	16ccc\JJ	.	.	.	.	.	.	.
!	!	!	!	!	!	!	!LO:PB:g=original	!	!	!	!	!
=30	=30	=30	=30	=30	=30	=30	=30	=30	=30	=30	=30	=30
8.G\L	.	.	16b-/LL	.	16bb-\LL	.	8d\	Do-	8b-\	Do-	8gg\	Do-
.	.	.	(16g/	.	16gg\	.	.	.	.	.	.	.
.	.	.	16f#X/	.	16ff#X\	.	8d\	-mi-	8cc\	-mi-	8ff#X\	-mi-
16A\K	6|	.	16a/JJ)	.	16aa\JJ	.	.	.	.	.	.	.
8B-\J	6	.	8g`/L	.	8gg\L	.	8d\	-ni	8b-\	-ni	8gg\	-ni
8r	.	.	(16g/L	.	16gg\L	.	8r	.	8r	.	8r	.
.	.	.	16fn/JJ)	.	16ffn\JJ	.	.	.	.	.	.	.
!LO:LB:g=original	!	!	!	!	!LO:LB:g=original	!	!	!	!	!	!	!
=31	=31	=31	=31	=31	=31	=31	=31	=31	=31	=31	=31	=31
8.B-\L	4_ 2_	.	8.e/L	.	8.ee\L	.	8c\	et	8g\	et	8ee\	et
.	.	.	.	.	.	.	8c\	ve-	8g\	ve-	8ee\	ve-
32c\LL	.	.	32d/LL	.	32dd\LL	.	.	.	.	.	.	.
32B-\JJJ	.	.	32e/JJJ	.	32ee\JJJ	.	.	.	.	.	.	.
8A\L	6	.	16f/LL	.	16ff\LL	.	8c\	-ri-	8a\	-ri-	8ffn\	-ri-
.	.	.	(16a/	.	16aa\	.	.	.	.	.	.	.
8E\J	6 5	.	16g/	.	16gg\	.	8c\	-tas	8b-\	-tas	8gg\	-tss
.	.	.	16b-/JJ)	.	16bb-\JJ	.	.	.	.	.	.	.
=32	=32	=32	=32	=32	=32	=32	=32	=32	=32	=32	=32	=32
8F\L	.	.	16a/LL	.	16aa\LL	.	8c\	Do-	8a\	Do-	8ff\	Do-
.	.	.	(16f/	.	16ff\	.	.	.	.	.	.	.
!	!	!	!	!	!	!	!	!	!LO:TX:a:t=SIC:custos ∞ gg	!	!	!
8G\	6	.	16e/	.	16ee\	.	8c\	-mi-	8b-\	-mi-	8ee\	-mi-
.	.	.	16g/JJ)	.	16gg\JJ	.	.	.	.	.	.	.
!	!	!	!	!	!	!	!	!	!LO:LB:g=original	!	!	!
8A\	.	.	8f`/L	.	8ff\L	.	8c\	-ni	8a\	-ni	8ff\	-ni
!	!	!	!LO:TX:a:t=P:problem= nieczytelny dźwięk c/h	!	!	!	!	!	!	!	!	!
8A\J	6 5-	.	8c/J	.	16ff\L	.	8F/	et	8cc\	et	8ee-X\	et
.	.	.	.	.	16ee-X\JJ	.	.	.	.	.	.	.
!	!	!	!LO:LB:g=original	!	!	!	!	!	!	!	!LO:LB:g=original	!
=33	=33	=33	=33	=33	=33	=33	=33	=33	=33	=33	=33	=33
8B-\L	.	.	8B-/L	.	16dd\LL	.	4d\	ve-	4b-\	ve-	4dd\	ve-
.	.	.	.	.	16cc\	.	.	.	.	.	.	.
!	!	!	!LO:TX:t=P:problem=mixed beam	!	!	!	!	!	!	!	!	!
8B-\	.	.	8b-\	.	16dd\	.	.	.	.	.	.	.
.	.	.	.	.	16ff\JJ	.	.	.	.	.	.	.
8G\	6_ 3_	.	8b-\	.	16een\LL	.	8c\	-ri-	8b-\	-ri-	8een\	-ri-
.	.	.	.	.	16cc\	.	.	.	.	.	.	.
8G\J	.	.	8b-\J	.	16dd\	.	8c\	-tas	8b-\	-tas	8ee\	-tas
.	.	.	.	.	16ee\JJ	.	.	.	.	.	.	.
=34	=34	=34	=34	=34	=34	=34	=34	=34	=34	=34	=34	=34
8F\L	x	.	8a\L	.	16ff\LL	.	4c\	Do-	4a\	Do-	4ff\	Do-
.	.	.	.	.	16cc\	.	.	.	.	.	.	.
8F\	.	.	8a\	.	16aa\	.	.	.	.	.	.	.
.	.	.	.	.	16gg\JJ	.	.	.	.	.	.	.
8A\	6_	.	8cc\	.	16gg\LL	.	8c\	-mi-	8cc\	-mi-	8ff\	-mi-
.	.	.	.	.	16ff\	.	.	.	.	.	.	.
!	!	!	!	!	!	!	!LO:TX:a:t=P:problem= znak równości jako przedłużenie sylaby	!	!	!	!	!
8A\J	.	.	8cc\J	.	16ee\	.	8c\	-ni=	8cc\	-ni	8ff\	-ni
.	.	.	.	.	16ff\JJ	.	.	.	.	.	.	.
!	!	!	!	!	!	!	!LO:PB:g=original	!	!	!	!	!
=35	=35	=35	=35	=35	=35	=35	=35	=35	=35	=35	=35	=35
*	*	*	*tremolo	*	*	*	*	*	*	*	*	*
8B-\L	6_	.	8dd\L	.	16ff\LL	.	8d\	Ma-	8b-\	ma-	8gg\	ma-
.	.	.	.	.	16gg\	.	.	.	.	.	.	.
8B-\	.	.	8dd\	.	16aa\	.	8d\	-net	8b-\	-net	8gg\	-net
.	.	.	.	.	16gg\JJ	.	.	.	.	.	.	.
8Bn\	5_	.	8dd\	.	16gg\LL	.	8d\	in	8a\	in	8ff\	in
.	.	.	.	.	16ff\	.	.	.	.	.	.	.
8B\J	.	.	8dd\J	.	16ee\	.	8d\	ae-	8a\	ae-	8ff\	ae-
.	.	.	.	.	16ff\JJ	.	.	.	.	.	.	.
*	*	*	*Xtremolo	*	*	*	*	*	*	*	*	*
=36	=36	=36	=36	=36	=36	=36	=36	=36	=36	=36	=36	=36
8c\L	4	.	8.a/L	.	(8.ff\L	.	4c\	-ter-	4a\	-ter-	4ff\	-ter-
!LO:TX:t=P:problem=mixed beam	!	!	!	!	!	!	!	!	!	!	!	!
8C/	3_	.	.	.	.	.	.	.	.	.	.	.
.	.	.	32g/LL	.	32ee\LL	.	.	.	.	.	.	.
.	.	.	32a/JJJ	.	32ff\JJJ)	.	.	.	.	.	.	.
8C/J	.	.	8g/	.	16ee\LL	.	8c\	-num	8g\	-num	8ee\	-num
.	.	.	.	.	16ff\	.	.	.	.	.	.	.
8r	x	.	8r	.	16gg\	.	8r	.	8r	.	8r	.
.	.	.	.	.	16ee\JJ	.	.	.	.	.	.	.
=37	=37	=37	=37	=37	=37	=37	=37	=37	=37	=37	=37	=37
8r	.	.	8r	.	8cc\L	.	8r	.	8r	.	8r	.
8C/L	6_ 3	.	8e/L	.	16dd\L	.	4G/	Ma-	8cc\	ma-	8ee\	ma-
.	.	.	.	.	16cc\JJ	.	.	.	.	.	.	.
!	!	!	!	!	!LO:LB:g=original	!	!	!	!	!	!	!
8D/	.	.	8f/	.	16cc\LL	.	.	.	8bn\L	.	8ff\L	.
.	.	.	.	.	16bn\	.	.	.	.	.	.	.
8E/J	5- 3	.	8g/J	.	16g\	.	8c\	.	8b-X\J	.	8gg\J	.
.	.	.	.	.	16b-X\JJ	.	.	.	.	.	.	.
!	!	!	!	!	!	!	!	!	!LO:LB:g=original	!	!	!
=38	=38	=38	=38	=38	=38	=38	=38	=38	=38	=38	=38	=38
8F\L	.	.	8a/L	.	16a\LL	.	2c\	.	8a\L	.	8ff\L	.
.	.	.	.	.	16cc\	.	.	.	.	.	.	.
8G\	.	.	8b-/	.	16ff\	.	.	.	8b-\J	.	8ee\J	.
.	.	.	.	.	16ee\JJ	.	.	.	.	.	.	.
8A\	-	.	8cc/	.	16gg\LL	.	.	.	4a\	.	4ff\	.
.	.	.	.	.	16ff\	.	.	.	.	.	.	.
8F\J	6	.	8a/J	.	16aa\	.	.	.	.	.	.	.
.	.	.	.	.	16ff\JJ	.	.	.	.	.	.	.
!LO:LB:g=original	!	!	!	!	!	!	!	!	!	!	!LO:LB:g=original	!
=39	=39	=39	=39	=39	=39	=39	=39	=39	=39	=39	=39	=39
8c\L	.	.	8g/L	.	16ff\LL	.	8c\	-net	8g\	-net	8ee\	-net
.	.	.	.	.	16ee\	.	.	.	.	.	.	.
!LO:TX:t=P:problem=mixed beam	!	!	!	!	!	!	!	!	!	!	!	!
8C/	6 3	.	8e/	.	16dd\	.	4G/	Ma-	8cc\L	ma-	8ee\L	ma-
.	.	.	.	.	16cc\JJ	.	.	.	.	.	.	.
8D/	6 3	.	8f/	.	(16cc\LL	.	.	.	8bn\	.	8ff\	.
.	.	.	.	.	16bn\	.	.	.	.	.	.	.
8E/J	5- 3	.	8g/J	.	16g\	.	8c\	.	8b-X\J	.	8gg\J	.
.	.	.	.	.	16b-X\JJ)	.	.	.	.	.	.	.
=40	=40	=40	=40	=40	=40	=40	=40	=40	=40	=40	=40	=40
8F\L	.	.	8a/L	.	16a\LL	.	2c\	.	8a\L	.	4ff\	.
.	.	.	.	.	16cc\	.	.	.	.	.	.	.
8G\	.	.	8b-/	.	16ff\	.	.	.	8b-\J	.	.	.
.	.	.	.	.	16ee\JJ	.	.	.	.	.	.	.
8A\	-	.	8cc/	.	16gg\LL	.	.	.	4a\	.	8ff\L	.
.	.	.	.	.	16ff\	.	.	.	.	.	.	.
8F\J	6	.	8a/J	.	16aa\	.	.	.	.	.	8ff\J	.
.	.	.	.	.	16ff\JJ	.	.	.	.	.	.	.
=41	=41	=41	=41	=41	=41	=41	=41	=41	=41	=41	=41	=41
*	*	*	*tremolo	*	*	*	*	*	*	*	*	*
8C/L	.	.	8g/L	.	16ff\LL	.	4c\	-net	4g\	-net	4ee\	-net
.	.	.	.	.	16ee\	.	.	.	.	.	.	.
8C/	.	.	8g/	.	16ee\	.	.	.	.	.	.	.
.	.	.	.	.	16ff\JJ	.	.	.	.	.	.	.
!	!	!	!	!	!	!	!LO:TX:a:t=P:problem= znak równości jako przedłużenie sylaby	!	!	!	!	!
8E/	9_ 5_	.	8g/	.	16gg\LL	.	4c\	ma-	4g\	ma-	4gg\	in-
.	.	.	.	.	16ee\	.	.	.	.	.	.	.
8E/J	.	.	8g/J	.	16cc\	.	.	.	.	.	.	.
.	.	.	.	.	16b-\JJ	.	.	.	.	.	.	.
!	!	!	!	!	!	!	!LO:PB:g=original	!	!	!	!	!
*	*	*	*Xtremolo	*	*	*	*	*	*	*	*	*
=42	=42	=42	=42	=42	=42	=42	=42	=42	=42	=42	=42	=42
!	!	!	!	!	!	!	!	!	!	!	!LO:TX:a:t=P:problem= dywiz jako przedłużenie sylaby	!
8F\L	x	.	8a\L	.	16a\LL	.	4c\	.	4a\	.	4ff\	.
.	.	.	.	.	16cc\	.	.	.	.	.	.	.
8F\	.	.	8a\	.	16ff\	.	.	.	.	.	.	.
.	.	.	.	.	16aa\JJ	.	.	.	.	.	.	.
8A\	6_	.	8cc\	.	16gg\LL	.	4c\	-net	4cc\	-net	4ff\	-ae-
.	.	.	.	.	16ff\	.	.	.	.	.	.	.
8A\J	.	.	8cc\J	.	16ee\	.	.	.	.	.	.	.
.	.	.	.	.	16ff\JJ	.	.	.	.	.	.	.
!	!	!	!	!	!LO:PB:g=original	!	!	!	!	!	!	!
=43	=43	=43	=43	=43	=43	=43	=43	=43	=43	=43	=43	=43
8B-\L	6_	.	8.dd\L	.	16ff#X\LL	.	8d\	in	8b-\	in	4gg\	-ter-
.	.	.	.	.	16gg\	.	.	.	.	.	.	.
8B-\	.	.	.	.	16bb-\	.	8d\	ae-	8b-\	ae-	.	.
.	.	.	16b-\Jk	.	16gg\JJ	.	.	.	.	.	.	.
!LO:TX:t=P:problem=mixed beam	!	!	!	!	!	!	!	!	!	!	!	!
8c\	4	.	16b-/LL	.	16gg\LL	.	4c\	-ter-	8a\L	-ter-	8ff\L	.
.	.	.	(16a/	.	16ffn\	.	.	.	.	.	.	.
8C/J	3	.	16a/	.	16ff\	.	.	.	8g\J	.	8ee\J	.
.	.	.	16g/JJ)	.	16ee\JJ	.	.	.	.	.	.	.
=44	=44	=44	=44	=44	=44	=44	=44	=44	=44	=44	=44	=44
!LO:TX:a:t=Solo	!	!	!	!	!	!	!	!	!	!	!	!
4F\	.	.	4a/	.	16ff\LL	.	4c\	-num	4a\	-num	4ff\	-num
.	.	.	.	.	16aa\	.	.	.	.	.	.	.
.	.	.	.	.	16gg\	.	.	.	.	.	.	.
.	.	.	.	.	16ff\JJ	.	.	.	.	.	.	.
8r	.	.	8r	.	16ee\LL	.	4r	.	4r	.	4r	.
.	.	.	.	.	16ff\	.	.	.	.	.	.	.
8A\	6	.	8cc\	.	16cc\	.	.	.	.	.	.	.
.	.	.	.	.	16ee-X\JJ	.	.	.	.	.	.	.
=45	=45	=45	=45	=45	=45	=45	=45	=45	=45	=45	=45	=45
!	!	!	!	!	!	!	!LO:TX:a:t=7.	!	!LO:TX:a:t=1	!	!LO:TX:a:t=1	!
!	!	!	!	!	!	!	!LO:N:vis=00	!	!LO:TX:t=P:problem= 1 z klamrą łukową	!	!LO:TX:t=P:problem= 1 z klamrą łukową	!
8B-\L	6_	.	16cc\LL	.	16ee\LL	.	0r	.	2r	.	2r	.
.	.	.	16b-\	.	16dd\	.	.	.	.	.	.	.
!	!	!	!	!	!	!LO:DY:t=for.	!	!	!	!	!	!
8B-\	.	.	16dd\	.	16bb-\	f	.	.	.	.	.	.
.	.	.	16b-\JJ	.	16gg\JJ	.	.	.	.	.	.	.
!LO:TX:t=P:problem=mixed beam	!	!	!LO:LB:g=original	!	!	!	!	!	!	!	!	!
8c\	4	.	16b-/LL	.	16gg\LL	.	.	.	.	.	.	.
.	.	.	(16a/	.	16ff\	.	.	.	.	.	.	.
8C/J	3	.	16a/	.	16ff\	.	.	.	.	.	.	.
.	.	.	16g/JJ)	.	16een\JJ	.	.	.	.	.	.	.
!	!	!	!	!	!	!	!	!	!LO:LB:g=original	!	!	!
=46	=46	=46	=46	=46	=46	=46	=46	=46	=46	=46	=46	=46
*	*	*	*tremolo	*	*	*	*	*	*	*	*	*
!	!	!LO:DY:t=pia	!	!	!	!LO:DY:t=pia	!	!	!	!	!	!
!	!	!LO:DY:a	!	!	!	!	!	!	!LO:TX:a:t=Solo	!	!LO:TX:a:t=Solo	!
4F\	.	p	8a/L	.	8ff\L	p	.	.	8r	.	8r	.
.	.	.	8a/	.	8cc\J	.	.	.	8a\	Glo-	8cc\	Glo-
8r	.	.	8a/	.	16ff\LL	.	.	.	8a\	-ri-	16ff\LL	-ri-
.	.	.	.	.	16ee\	.	.	.	.	.	16ee\JJ	.
8F\	.	.	8a/J	.	16dd\	.	.	.	8a\	-a	16dd\LL	-a
.	.	.	.	.	16cc\JJ	.	.	.	.	.	16cc\JJ	.
*	*	*	*Xtremolo	*	*	*	*	*	*	*	*	*
!LO:LB:g=original	!	!	!	!	!	!	!	!	!	!	!LO:LB:g=original	!
=47	=47	=47	=47	=47	=47	=47	=47	=47	=47	=47	=47	=47
8c\L	.	.	(8.a/L	.	(8.cc\L	.	.	.	8.a\L	Pa-	8.cc\L	Pa-
8c\	.	.	.	.	.	.	.	.	.	.	.	.
.	.	.	16g/Jk)	.	16b-\Jk)	.	.	.	16g\Jk	.	16b-\Jk	.
!LO:TX:t=P:problem=mixed beam	!	!	!	!	!	!	!	!	!	!	!	!
8C/	.	.	8e/L	.	(16g/LL	.	.	.	8e\	-tri	16g\LL	-tri
.	.	.	.	.	16a/	.	.	.	.	.	16a\JJ	.
8C/J	.	.	8e/J	.	16b-/	.	.	.	8e\	et	16b-\LL	et
.	.	.	.	.	16cc/JJ)	.	.	.	.	.	16cc\JJ	.
=48	=48	=48	=48	=48	=48	=48	=48	=48	=48	=48	=48	=48
8F\L	4	.	8.g/L	.	(8.b-\L	.	.	.	8.g\	Fi-	8.b-\	Fi-
16F\L	.	.	.	.	.	.	.	.	.	.	.	.
16E\JJ	.	.	(32a/LL	.	32cc\LL	.	.	.	16g\	-li-	16b-\	-li-
.	.	.	32g/JJJ)	.	32b-\JJJ)	.	.	.	.	.	.	.
!LO:TX:t=P:problem=mixed beam	!	!	!	!	!	!	!	!	!	!	!	!
8F\L	.	.	8f/L	.	8a/L	.	.	.	8f\	-o	8a\	-o
8FF/J	3	.	8a/J	.	8cc/J	.	.	.	8a\	et	8cc\	et
!	!	!	!	!	!LO:LB:g=original	!	!	!	!	!	!	!
=49	=49	=49	=49	=49	=49	=49	=49	=49	=49	=49	=49	=49
*tremolo	*	*	*	*	*	*	*	*	*	*	*	*
!	!	!	!	!	!	!	!LO:N:vis=0	!	!	!	!	!
8F\L	6 4	.	(8.b-\L	.	8.dd\L	.	1r	.	8.b-\L	Spi-	8.dd\L	Spi-
8F\	.	.	.	.	.	.	.	.	.	.	.	.
.	.	.	16cc\Jk)	.	16ee\Jk	.	.	.	16cc\Jk	.	16ee\Jk	.
8F\	.	.	8dd\L	.	16gg\LL	.	.	.	8dd\	.	16gg\LL	-ri-
.	.	.	.	.	(16ff\	.	.	.	.	.	16ff\JJ	.
8F\J	.	.	16cc\L	.	16ee\	.	.	.	16cc\LL	-ri-	16ee\LL	-tu-
.	.	.	16b-\JJ	.	16dd\JJ)	.	.	.	16b-\JJ	.	16dd\JJ	.
*Xtremolo	*	*	*	*	*	*	*	*	*	*	*	*
=50	=50	=50	=50	=50	=50	=50	=50	=50	=50	=50	=50	=50
8F\L	3	.	8a/L	.	8cc\L	.	.	.	8a\	-tu-	8cc\	-i
8B-\	6	.	16b-/L	.	16dd\L	.	.	.	16b-\LL	-i	16dd\LL	San-
.	.	.	16g/JJ	.	16b-\JJ	.	.	.	16g\JJ	.	16b-\JJ	.
!	!	!	!	!	!	!	!	!	!	!	!LO:TX:a:t=P:problem= znak równości jako przedłużenie sylaby	!
8c\	4	.	8f/L	.	8a/L	.	.	.	8f\L	San-	8a\L	-=
!LO:TX:t=P:problem=mixed beam	!	!	!	!	!	!	!	!	!	!	!	!
8C/J	3	.	8e/J	.	8g/J	.	.	.	8e\J	.	8g\J	.
!	!	!	!	!	!	!	!	!	!LO:LB:g=original	!	!	!
=51	=51	=51	=51	=51	=51	=51	=51	=51	=51	=51	=51	=51
4F\	.	.	16f/LL	.	16a\LL	.	2r	.	4f\	-cto	4a\	cto
.	.	.	16a/	.	16cc\	.	.	.	.	.	.	.
.	.	.	16b-/	.	16dd\	.	.	.	.	.	.	.
.	.	.	16cc/JJ	.	16ee\JJ	.	.	.	.	.	.	.
4r	.	.	16dd\LL	.	16ff\LL	.	.	.	4r	.	4r	.
.	.	.	16cc\	.	16ee\	.	.	.	.	.	.	.
.	.	.	16dd\	.	16ff\	.	.	.	.	.	.	.
.	.	.	16b-\JJ	.	16gg\JJ	.	.	.	.	.	.	.
=52	=52	=52	=52	=52	=52	=52	=52	=52	=52	=52	=52	=52
*tremolo	*	*	*tremolo	*	*	*	*	*	*	*	*	*
!LO:TX:a:t=Tutti	!	!	!	!LO:DY:t=for.	!	!LO:DY:t=for.	!	!	!	!	!	!
8F\L	.	.	8a/L	f	8.aa\L	f	8f\	Si-	8a\	Si-	8cc\	Si-
8F\	.	.	8a/	.	.	.	8f\	-cut	8a\	-cut	8cc\	-cut
.	.	.	.	.	16ff\Jk	.	.	.	.	.	.	.
8F\	.	.	8a/	.	16cc\LL	.	8f\	e-	8a\	e-	8cc\	e-
.	.	.	.	.	16a\	.	.	.	.	.	.	.
8F\J	.	.	8a/J	.	16ff\	.	8f\	-rat	8a\	-rat	8cc\	-rat
.	.	.	.	.	16a\JJ	.	.	.	.	.	.	.
!	!	!	!	!	!	!	!	!	!	!	!LO:LB:g=original	!
*	*	*	*Xtremolo	*	*	*	*	*	*	*	*	*
=53	=53	=53	=53	=53	=53	=53	=53	=53	=53	=53	=53	=53
8F\L	6 4	.	8b-/L	.	16dd\LL	.	8f\	in	8b-\	in	8dd\	in
.	.	.	.	.	16ee\	.	.	.	.	.	.	.
8F\	.	.	8b-/	.	16ff\	.	8f\	prin-	8b-\	prin-	8dd\	prin-
.	.	.	.	.	16dd\JJ	.	.	.	.	.	.	.
8F\	5 3	.	8a/	.	16cc\LL	.	8f\	-ci-	8a\	-ci-	8cc\	-ci-
.	.	.	.	.	16dd\	.	.	.	.	.	.	.
8F\J	.	.	8a/J	.	16ee\	.	8f\	-pi-	8a\	-pi-	8ff\	-pi-
.	.	.	.	.	16ff\JJ	.	.	.	.	.	.	.
=54	=54	=54	=54	=54	=54	=54	=54	=54	=54	=54	=54	=54
8C/L	7	.	8g/L	.	16gg\LL	.	8g\	-o	8g\	-o	8ee\	-o
.	.	.	.	.	16ee\	.	.	.	.	.	.	.
8C/	.	.	8g/	.	16cc\	.	8g\	et	8g\	et	8ee\	et
.	.	.	.	.	16b-\JJ	.	.	.	.	.	.	.
!	!	!	!	!	!	!	!LO:LB:g=original	!	!	!	!	!
8C/	.	.	8e/	.	16g/LL	.	8g\	nŭnc	8g\	nŭnc	8ee\	nŭnc
.	.	.	.	.	16a/	.	.	.	.	.	.	.
8C/J	.	.	8e/J	.	16b-/	.	8g\	et	8g\	et	8ee\	et
.	.	.	.	.	16cc/JJ	.	.	.	.	.	.	.
!	!	!	!LO:LB:g=original	!	!LO:LB:g=original	!	!	!	!	!	!	!
=55	=55	=55	=55	=55	=55	=55	=55	=55	=55	=55	=55	=55
8F\L	4	.	8.g/L	.	(8.b-\L	.	4f\	Sem-	4b-\	Sem-	4gg\	Sem-
8F\	.	.	.	.	.	.	.	.	.	.	.	.
.	.	.	(32f/LL	.	32a\LL	.	.	.	.	.	.	.
.	.	.	32g/JJJ)	.	32b-\JJJ)	.	.	.	.	.	.	.
8F\	3	.	8f/L	.	16a\LL	.	4f\	-per	4a\	-per	4ff\	-per
.	.	.	.	.	16cc\	.	.	.	.	.	.	.
8F\J	.	.	16a/L	.	16ff\	.	.	.	.	.	.	.
.	.	.	16cc/JJ	.	16aa\JJ	.	.	.	.	.	.	.
*Xtremolo	*	*	*	*	*	*	*	*	*	*	*	*
=56	=56	=56	=56	=56	=56	=56	=56	=56	=56	=56	=56	=56
8E\L	9_ 5_	.	8b-/L	.	16gg\LL	.	4c\	et	4b-\	et	4gg\	et
.	.	.	.	.	16ee\	.	.	.	.	.	.	.
8E\	.	.	8g/J	.	16cc\	.	.	.	.	.	.	.
.	.	.	.	.	16b-\JJ	.	.	.	.	.	.	.
8F\	x	.	8f/L	.	16a\LL	.	4c\	in	4a\	in	4ff\	in
.	.	.	.	.	16cc\	.	.	.	.	.	.	.
8F\J	.	.	16a/L	.	16ff\	.	.	.	.	.	.	.
.	.	.	16cc/JJ	.	16aa\JJ	.	.	.	.	.	.	.
!LO:LB:g=original	!	!	!	!	!	!	!	!	!	!	!	!
=57	=57	=57	=57	=57	=57	=57	=57	=57	=57	=57	=57	=57
8E\L	9_ 5_	.	8b-/L	.	16gg\LL	.	4c\	Sae-	4b-\	Sae-	4gg\	Sae-
.	.	.	.	.	16ee\	.	.	.	.	.	.	.
8E\	.	.	8g/J	.	16cc\	.	.	.	.	.	.	.
.	.	.	.	.	16b-\JJ	.	.	.	.	.	.	.
!	!	!	!	!	!	!	!	!	!LO:LB:g=original	!	!	!
8F\	x	.	8f/L	.	16a\LL	.	8c\	-cu-	8a\	-cu-	8ff\L	-cu-
.	.	.	.	.	16cc\	.	.	.	.	.	.	.
8F\J	.	.	16a/L	.	16ff\	.	8c\	-la	8cc\	-la	8ff\J	-la
.	.	.	16cc/JJ	.	16aa\JJ	.	.	.	.	.	.	.
=58	=58	=58	=58	=58	=58	=58	=58	=58	=58	=58	=58	=58
*tremolo	*	*	*tremolo	*	*	*	*	*	*	*	*	*
8B-\L	6	.	8dd\L	.	16gg\LL	.	4B-\	Sae-	4dd\	Sae-	4gg\	Sae-
.	.	.	.	.	16bb-\	.	.	.	.	.	.	.
8B-\	.	.	8dd\	.	16aa\	.	.	.	.	.	.	.
.	.	.	.	.	16gg\JJ	.	.	.	.	.	.	.
8B-\	.	.	8dd\	.	16ff#X\LL	.	4B-\	-cu-	4dd\	-cu-	4gg\	-cu-
.	.	.	.	.	16gg\	.	.	.	.	.	.	.
8B-\J	.	.	8dd\J	.	16ff#\	.	.	.	.	.	.	.
.	.	.	.	.	16gg\JJ	.	.	.	.	.	.	.
=59	=59	=59	=59	=59	=59	=59	=59	=59	=59	=59	=59	=59
8A\L	6	.	8cc\L	.	16ffn\LL	.	4c\	-lo-	4cc\	-lo-	4ff\	-lo-
.	.	.	.	.	16aa\	.	.	.	.	.	.	.
8A\	.	.	8cc\	.	16gg\	.	.	.	.	.	.	.
.	.	.	.	.	16ff\JJ	.	.	.	.	.	.	.
8A\	.	.	8cc\	.	16ee\LL	.	4c\	-rum	4cc\	-rum	4ff\	-rum
.	.	.	.	.	16ff\	.	.	.	.	.	.	.
8A\J	.	.	8cc\J	.	16ee\	.	.	.	.	.	.	.
.	.	.	.	.	16ff\JJ	.	.	.	.	.	.	.
*	*	*	*Xtremolo	*	*	*	*	*	*	*	*	*
*Xtremolo	*	*	*	*	*	*	*	*	*	*	*	*
!	!	!	!	!	!	!	!	!	!	!	!LO:LB:g=original	!
*Xtremolo	*	*	*Xtremolo	*	*	*	*	*	*	*	*	*
=60	=60	=60	=60	=60	=60	=60	=60	=60	=60	=60	=60	=60
8B-\L	6	.	8b-\L	.	16ff#X\LL	.	4d\	A-	4b-\	A-	4gg\	A-
.	.	.	.	.	16gg\	.	.	.	.	.	.	.
8B-\	.	.	16dd\L	.	16bb-\	.	.	.	.	.	.	.
.	.	.	16b-\JJ	.	16gg\JJ	.	.	.	.	.	.	.
!LO:TX:t=P:problem=mixed beam	!	!	!	!	!	!	!	!	!	!	!	!
8c\	4	.	16b-/LL	.	16gg\LL	.	4c\	.	8a\L	.	8ff\L	.
.	.	.	(16a/	.	16ffn\	.	.	.	.	.	.	.
8C/J	3	.	16a/	.	16ff\	.	.	.	8g\J	.	8ee\J	.
.	.	.	16g/JJ)	.	16ee\JJ	.	.	.	.	.	.	.
!	!	!	!	!	!LO:LB:g=original	!	!	!	!	!	!	!
=61	=61	=61	=61	=61	=61	=61	=61	=61	=61	=61	=61	=61
8F\L	.	.	4a/	.	8ff\	.	8c\	-men	4a\	-men	8ff\	-men
8D\	.	.	.	.	4ff\	.	4d\	A-	.	.	4ff\	A-
8BB-\	6 5	.	4g/	.	.	.	.	.	4g\	A-	.	.
8C\J	.	.	.	.	8ee\	.	8c\	.	.	.	8ff\	.
=62	=62	=62	=62	=62	=62	=62	=62	=62	=62	=62	=62	=62
4FF/	.	.	4a/	.	4a\ 4ff	.	4c\	-men	4a\	-men	4ff\	-men
4r	.	.	4r	.	4r	.	4r	.	4r	.	4r	.
==	==	==	==	==	==	==	==	==	==	==	==	==
*-	*-	*-	*-	*-	*-	*-	*-	*-	*-	*-	*-	*-
!!!system-decoration: [(g1)][(g2)]g3
!!!ENC: Anna Matuszewska
!!!END: 2020-10-29
!!!ENC: Marta Chmielewska
!!!END: 2020-06-05
!!!YEC: Copyright 2022 Narodowy Instytut Fryderyka Chopina (https://polishscores.org)
!!!YEM: License CC-BY-4.0 (https://creativecommons.org/licenses/by/4.0)
